Origami/24x24/apps/rstudio.svg

<svg width="24" height="24" version="1.1" viewBox="0 0 24 24" xmlns="http://www.w3.org/2000/svg">
 <circle cx="12" cy="12" r="10" style="fill:#63aaed"/>
 <path d="m2.03615 13.2395a10 10 0 0 0 9.964 9.2605 10 10 0 0 0 9.9435 -9.037 10 9.231 0 0 1 -2.509 5.194 10 10 0 0 1 -7.4345 3.343 10 10 0 0 1 -7.5165 -3.4325 10 9.231 0 0 1 -2.44735 -5.328z" style="opacity:.2"/>
 <path d="M 12,2 A 10,10 0 0 0 2.036,11.2605 10,9.231 0 0 1 4.4834,5.9325 10,10 0 0 1 11.9999,2.5 10,10 0 0 1 19.4424,5.8515 10,9.231 0 0 1 21.9434,11.037 10,10 0 0 0 11.9999,2 Z" style="fill:#ffffff;opacity:.2"/>
 <path d="m8.588867 7.500314c-0.6910815-0.041108-1.059982 0-1.088867 0.55s0.6630535 0.4200487 1.088867 0.4573243h0.411133v7.9926747h-0.411133c-1.0221426 0-1.589016 0-1.588867 0.45 2.127e-4 0.642431 0.4573522 0.55 1.589844 0.55h2.474609c0.656373 0.033824 0.935547-0.102655 0.935547-0.55 0-0.51551-0.472819-0.417737-0.935547-0.45h-1.0708005v-3h2.2267935c0.693109 0.257281 2.112394 2.336261 2.937554 4h1.253133c0.684546 0.029284 1.588867 0.085341 1.588867-0.557s-1.165834-0.406154-1.588867-0.443h-0.515133c-0.693109-1.149208-1.603341-2.752776-2.379-3.456 1.483-0.544 1.483-1.544 1.483-2.490289 0-2.0533875-1-3.05371-2.865234-3.05371zm1.417481 0.9926757h2.259277c1.734375 0 1.734375 1.2603213 1.734375 2.0014643 0 0.861828 0 1.974141-2 2.006347l-1.993652-9.76e-4z" style="opacity:.2"/>
 <path d="M 8.588867,7 C 7.8977855,6.9588925 7.528885,7 7.5,7.55 7.471115,8.1 8.1630535,7.9700487 8.588867,8.0073243 H 9 V 16 H 8.588867 C 7.5667244,16 6.999851,16 7,16.45 7.0002127,17.092431 7.4573522,17 8.589844,17 h 2.474609 C 11.720826,17.033824 12,16.897345 12,16.45 12,15.93449 11.527181,16.032263 11.064453,16 H 9.9936525 v -3 h 2.2267935 c 0.693109,0.257281 2.112394,2.336261 2.937554,4 h 1.253133 C 17.095679,17.029284 18,17.085341 18,16.443 18,15.800659 16.834166,16.036846 16.411133,16 H 15.896 C 15.202891,14.850792 14.292659,13.247224 13.517,12.544 15,12 15,11 15,10.053711 15,8.0003225 14,7 12.134766,7 Z m 1.417481,0.9926757 h 2.259277 C 14,7.9926757 14,9.252997 14,9.9941405 c 0,0.8618285 0,1.9741415 -2,2.0063475 l -1.993652,-9.76e-4 z" style="fill:#ffffff"/>
</svg>

<svg xmlns="http://www.w3.org/2000/svg" width="24" height="24" version="1.1" viewBox="0 0 24 24">
 <circle style="fill:#63aaed" cx="12" cy="12" r="10"/>
 <path style="opacity:0.2" d="m 2.03615,13.2395 a 10,10 0 0 0 9.964,9.2605 10,10 0 0 0 9.9435,-9.037 10,9.231 0 0 1 -2.509,5.194 A 10,10 0 0 1 12.00015,22 10,10 0 0 1 4.48365,18.5675 10,9.231 0 0 1 2.0363,13.2395 Z"/>
 <path style="opacity:0.2;fill:#ffffff" d="M 12,2 A 10,10 0 0 0 2.036,11.2605 10,9.231 0 0 1 4.4834,5.9325 10,10 0 0 1 11.9999,2.5 10,10 0 0 1 19.4424,5.8515 10,9.231 0 0 1 21.9434,11.037 10,10 0 0 0 11.9999,2 Z"/>
 <path style="opacity:0.2" d="m 8.588867,7.500314 c -0.6910815,-0.041108 -1.059982,0 -1.088867,0.55 -0.028885,0.55 0.6630535,0.4200487 1.088867,0.4573243 H 9 V 16.500313 H 8.588867 c -1.0221426,0 -1.589016,0 -1.588867,0.45 2.127e-4,0.642431 0.4573522,0.55 1.589844,0.55 h 2.474609 C 11.720826,17.534137 12,17.397658 12,16.950313 c 0,-0.51551 -0.472819,-0.417737 -0.935547,-0.45 H 9.9936525 v -3 h 2.2267935 c 0.693109,0.257281 2.112394,2.336261 2.937554,4 h 1.253133 C 17.095679,17.529597 18,17.585654 18,16.943313 c 0,-0.642341 -1.165834,-0.406154 -1.588867,-0.443 H 15.896 c -0.693109,-1.149208 -1.603341,-2.752776 -2.379,-3.456 C 15,12.500313 15,11.500313 15,10.554024 15,8.5006365 14,7.500314 12.134766,7.500314 Z m 1.417481,0.9926757 h 2.259277 C 14,8.4929897 14,9.753311 14,10.494454 c 0,0.861828 0,1.974141 -2,2.006347 l -1.993652,-9.76e-4 z"/>
 <path style="fill:#ffffff" d="M 8.588867,7 C 7.8977855,6.9588925 7.528885,7 7.5,7.55 7.471115,8.1 8.1630535,7.9700487 8.588867,8.0073243 H 9 V 16 H 8.588867 C 7.5667244,16 6.999851,16 7,16.45 7.0002127,17.092431 7.4573522,17 8.589844,17 h 2.474609 C 11.720826,17.033824 12,16.897345 12,16.45 12,15.93449 11.527181,16.032263 11.064453,16 H 9.9936525 v -3 h 2.2267935 c 0.693109,0.257281 2.112394,2.336261 2.937554,4 h 1.253133 C 17.095679,17.029284 18,17.085341 18,16.443 18,15.800659 16.834166,16.036846 16.411133,16 H 15.896 C 15.202891,14.850792 14.292659,13.247224 13.517,12.544 15,12 15,11 15,10.053711 15,8.0003225 14,7 12.134766,7 Z m 1.417481,0.9926757 h 2.259277 C 14,7.9926757 14,9.252997 14,9.9941405 c 0,0.8618285 0,1.9741415 -2,2.0063475 l -1.993652,-9.76e-4 z"/>
</svg>
